X:440
T:Deerness Jig, The
C:James S C Johnstone, Orkney
S:Alan Jackson, Orkney
Z:Nigel Gatherer
M:6/8
L:1/8
K:D
fg | afb a2 f | def d2 B | AFB AFB  | A3-Afg  |
     afb a2 f | def d2 B | ABA def  | e3-efg  |
     afb a2 f | def d2 B | AFB AFB  | A3-AzA  |
     Bcd dcB  | Aaa a^ga | bag f2 e | d3-d   ||
z2 | DED F2 A | d3- d2 c | BGB dcB  | ABA GFE |
     DED F2 A | d3- dcB  | ABA AGF  | E3-E2 z |
     DED F2 A | d3- d2 c | BGB dcB  | A3-AzA  |
     Bcd dcB  | Aaa a^ga | bag f2 e | d3-d   ||
